chrome/icons/add-to-multi.svg

<svg width="16" height="16" viewBox="0 0 16 16" fill="none" xmlns="http://www.w3.org/2000/svg">
<g clip-path="url(#clip0_52_1145)">
<path d="M7.49704 4.46702C7.49704 4.33381 7.44375 4.2206 7.33719 4.12736C7.23064 4.03411 7.11076 3.98749 6.97755 3.98749C6.84434 3.98749 6.73113 4.03411 6.63788 4.12736C6.54463 4.2206 6.49801 4.33381 6.49801 4.46702V6.46507H4.49997C4.34012 6.46507 4.21359 6.51836 4.12034 6.62492C4.02709 6.73147 3.98047 6.85136 3.98047 6.98457C3.98047 7.11778 4.02709 7.23098 4.12034 7.32423C4.21359 7.41748 4.34012 7.4641 4.49997 7.4641H6.49801V9.46214C6.47138 9.62199 6.51134 9.74853 6.6179 9.84178C6.72445 9.93502 6.84434 9.98164 6.97755 9.98164C7.11076 9.98164 7.23064 9.93502 7.33719 9.84178C7.44375 9.74853 7.49704 9.62199 7.49704 9.46214V7.4641H9.49509C9.6283 7.4641 9.74151 7.41748 9.83476 7.32423C9.928 7.23098 9.97462 7.11778 9.97462 6.98457C9.97462 6.85136 9.928 6.73147 9.83476 6.62492C9.74151 6.51836 9.61497 6.46507 9.45513 6.46507H7.49704V4.46702ZM2.50192 -0.00860596C1.80925 -0.00860596 1.21651 0.237814 0.723653 0.730672C0.230794 1.22353 -0.015625 1.80297 -0.015625 2.46897V11.4602C-0.015625 12.1529 0.230794 12.7456 0.723653 13.2385C1.21651 13.7313 1.79595 13.9777 2.46196 13.9777H11.4931C12.1591 13.9777 12.7386 13.7313 13.2314 13.2385C13.7243 12.7456 13.9707 12.1529 13.9707 11.4602V2.46897C13.9707 1.80297 13.7243 1.22353 13.2314 0.730672C12.7386 0.237814 12.1458 -0.00860596 11.4532 -0.00860596H2.50192ZM0.983399 2.46897C0.983399 2.06937 1.12992 1.72304 1.42297 1.42999C1.71602 1.13694 2.06235 0.990418 2.46196 0.990418H11.4931C11.8927 0.990418 12.2391 1.13694 12.5321 1.42999C12.8252 1.72304 12.9717 2.08269 12.9717 2.50894V11.4602C12.9717 11.8864 12.8252 12.2461 12.5321 12.5391C12.2391 12.8322 11.8927 12.9787 11.4931 12.9787H2.50192C2.07567 12.9787 1.71602 12.8322 1.42297 12.5391C1.12992 12.2461 0.983399 11.8998 0.983399 11.5002V2.46897ZM5.49899 15.9758C4.53993 15.9758 3.71407 15.6428 3.02141 14.9768H12.4922C13.1582 14.9768 13.7376 14.7303 14.2305 14.2375C14.7233 13.7446 14.9697 13.1519 14.9697 12.4592V3.02843C15.6358 3.72109 15.9688 4.53362 15.9688 5.46605V12.4592C15.9688 13.4449 15.6291 14.2774 14.9498 14.9568C14.2704 15.6361 13.4512 15.9758 12.4922 15.9758H5.49899Z" fill="context-fill" fill-opacity="context-fill-opacity"/>
</g>
<defs>
<clipPath id="clip0_52_1145">
<rect width="16" height="16" fill="white"/>
</clipPath>
</defs>
</svg>

<svg xmlns="http://www.w3.org/2000/svg" width="16" height="16" fill="none" viewBox="0 0 16 16"><g clip-path="url(#a)"><path fill="context-fill" fill-opacity="context-fill-opacity" d="M7.497 4.467a.44.44 0 0 0-.16-.34.53.53 0 0 0-.36-.14.46.46 0 0 0-.34.14.46.46 0 0 0-.139.34v1.998H4.5a.48.48 0 0 0-.38.16.53.53 0 0 0-.14.36q0 .2.14.34.14.139.38.14h1.998v1.997q-.04.24.12.38a.53.53 0 0 0 .72 0 .48.48 0 0 0 .159-.38V7.464h1.998a.46.46 0 0 0 .34-.14.46.46 0 0 0 .14-.34.53.53 0 0 0-.14-.36.48.48 0 0 0-.38-.159H7.497zM2.502-.009q-1.039 0-1.778.74t-.74 1.738v8.991q0 1.04.74 1.778.74.74 1.738.74h9.031q1 0 1.738-.74.74-.738.74-1.778V2.47q0-.999-.74-1.738a2.42 2.42 0 0 0-1.778-.74zM.983 2.47q0-.6.44-1.039A1.42 1.42 0 0 1 2.462.99h9.031q.6 0 1.04.44.438.44.439 1.079v8.951q0 .639-.44 1.08a1.42 1.42 0 0 1-1.039.439H2.502q-.64 0-1.079-.44a1.42 1.42 0 0 1-.44-1.039zM5.5 15.976a3.45 3.45 0 0 1-2.478-1h9.471q1 0 1.738-.739.74-.738.74-1.778V3.03q.999 1.039.999 2.437v6.993q0 1.479-1.02 2.498a3.35 3.35 0 0 1-2.457 1.019z"/></g><defs><clipPath id="a"><path fill="#fff" d="M0 0h16v16H0z"/></clipPath></defs></svg>
